public/images/logo/logo-icon.svg

<svg width="32" height="32" xmlns="http://www.w3.org/2000/svg" fill="none">
 <defs>
  <filter color-interpolation-filters="sRGB" filterUnits="userSpaceOnUse" height="20.5264" width="5.36841" y="6.2373" x="7.42383" id="filter0_d_1884_16361">
   <feGaussianBlur stdDeviation="0.5"/>
  </filter>
  <filter color-interpolation-filters="sRGB" filterUnits="userSpaceOnUse" height="13.7891" width="5.36841" y="12.9727" x="13.7422" id="filter1_d_1884_16361">
   <feGaussianBlur stdDeviation="0.5"/>
  </filter>
  <filter color-interpolation-filters="sRGB" filterUnits="userSpaceOnUse" height="18" width="5.36841" y="8.76172" x="20.0547" id="filter2_d_1884_16361">
   <feGaussianBlur stdDeviation="0.5"/>
  </filter>
 </defs>
 <g>
  <title>Layer 1</title>
  <path id="svg_1" fill="#fc3a3a" d="m0,8.42105c0,-4.65082 3.77023,-8.42105 8.42105,-8.42105l15.15785,0c4.6509,0 8.4211,3.77023 8.4211,8.42105l0,15.15785c0,4.6509 -3.7702,8.4211 -8.4211,8.4211l-15.15785,0c-4.65082,0 -8.42105,-3.7702 -8.42105,-8.4211l0,-15.15785z"/>
  <g id="svg_2" filter="url(#filter0_d_1884_16361)">
   <path id="svg_3" fill="white" d="m8.42383,8.42152c0,-0.93017 0.75404,-1.68422 1.68417,-1.68422c0.9302,0 1.6842,0.75405 1.6842,1.68422l0,15.15788c0,0.9302 -0.754,1.6842 -1.6842,1.6842c-0.93013,0 -1.68417,-0.754 -1.68417,-1.6842l0,-15.15788z"/>
  </g>
  <g id="svg_4" filter="url(#filter1_d_1884_16361)">
   <path id="svg_5" shape-rendering="crispEdges" fill-opacity="0.9" fill="white" d="m14.7422,15.1569c0,-0.9302 0.754,-1.6842 1.6842,-1.6842c0.9302,0 1.6842,0.754 1.6842,1.6842l0,8.421c0,0.9302 -0.754,1.6842 -1.6842,1.6842c-0.9302,0 -1.6842,-0.754 -1.6842,-1.6842l0,-8.421z"/>
  </g>
  <g id="svg_6" filter="url(#filter2_d_1884_16361)">
   <path id="svg_7" shape-rendering="crispEdges" fill-opacity="0.7" fill="white" d="m21.0547,10.9459c0,-0.9301 0.754,-1.68418 1.6842,-1.68418c0.9302,0 1.6842,0.75408 1.6842,1.68418l0,12.6316c0,0.9302 -0.754,1.6842 -1.6842,1.6842c-0.9302,0 -1.6842,-0.754 -1.6842,-1.6842l0,-12.6316z"/>
  </g>
 </g>
</svg>

<svg width="32" height="32" viewBox="0 0 32 32" fill="none" xmlns="http://www.w3.org/2000/svg">
<path d="M0 8.42105C0 3.77023 3.77023 0 8.42105 0H23.5789C28.2298 0 32 3.77023 32 8.42105V23.5789C32 28.2298 28.2298 32 23.5789 32H8.42105C3.77023 32 0 28.2298 0 23.5789V8.42105Z" fill="#465FFF"/>
<g filter="url(#filter0_d_1884_16361)">
<path d="M8.42383 8.42152C8.42383 7.49135 9.17787 6.7373 10.108 6.7373C11.0382 6.7373 11.7922 7.49135 11.7922 8.42152V23.5794C11.7922 24.5096 11.0382 25.2636 10.108 25.2636C9.17787 25.2636 8.42383 24.5096 8.42383 23.5794V8.42152Z" fill="white"/>
</g>
<g filter="url(#filter1_d_1884_16361)">
<path d="M14.7422 15.1569C14.7422 14.2267 15.4962 13.4727 16.4264 13.4727C17.3566 13.4727 18.1106 14.2267 18.1106 15.1569V23.5779C18.1106 24.5081 17.3566 25.2621 16.4264 25.2621C15.4962 25.2621 14.7422 24.5081 14.7422 23.5779V15.1569Z" fill="white" fill-opacity="0.9" shape-rendering="crispEdges"/>
</g>
<g filter="url(#filter2_d_1884_16361)">
<path d="M21.0547 10.9459C21.0547 10.0158 21.8087 9.26172 22.7389 9.26172C23.6691 9.26172 24.4231 10.0158 24.4231 10.9459V23.5775C24.4231 24.5077 23.6691 25.2617 22.7389 25.2617C21.8087 25.2617 21.0547 24.5077 21.0547 23.5775V10.9459Z" fill="white" fill-opacity="0.7" shape-rendering="crispEdges"/>
</g>
<defs>
<filter id="filter0_d_1884_16361" x="7.42383" y="6.2373" width="5.36841" height="20.5264" filterUnits="userSpaceOnUse" color-interpolation-filters="sRGB">
<feFlood flood-opacity="0" result="BackgroundImageFix"/>
<feColorMatrix in="SourceAlpha" type="matrix" values="0 0 0 0 0 0 0 0 0 0 0 0 0 0 0 0 0 0 127 0" result="hardAlpha"/>
<feOffset dy="0.5"/>
<feGaussianBlur stdDeviation="0.5"/>
<feComposite in2="hardAlpha" operator="out"/>
<feColorMatrix type="matrix" values="0 0 0 0 0 0 0 0 0 0 0 0 0 0 0 0 0 0 0.12 0"/>
<feBlend mode="normal" in2="BackgroundImageFix" result="effect1_dropShadow_1884_16361"/>
<feBlend mode="normal" in="SourceGraphic" in2="effect1_dropShadow_1884_16361" result="shape"/>
</filter>
<filter id="filter1_d_1884_16361" x="13.7422" y="12.9727" width="5.36841" height="13.7891" filterUnits="userSpaceOnUse" color-interpolation-filters="sRGB">
<feFlood flood-opacity="0" result="BackgroundImageFix"/>
<feColorMatrix in="SourceAlpha" type="matrix" values="0 0 0 0 0 0 0 0 0 0 0 0 0 0 0 0 0 0 127 0" result="hardAlpha"/>
<feOffset dy="0.5"/>
<feGaussianBlur stdDeviation="0.5"/>
<feComposite in2="hardAlpha" operator="out"/>
<feColorMatrix type="matrix" values="0 0 0 0 0 0 0 0 0 0 0 0 0 0 0 0 0 0 0.12 0"/>
<feBlend mode="normal" in2="BackgroundImageFix" result="effect1_dropShadow_1884_16361"/>
<feBlend mode="normal" in="SourceGraphic" in2="effect1_dropShadow_1884_16361" result="shape"/>
</filter>
<filter id="filter2_d_1884_16361" x="20.0547" y="8.76172" width="5.36841" height="18" filterUnits="userSpaceOnUse" color-interpolation-filters="sRGB">
<feFlood flood-opacity="0" result="BackgroundImageFix"/>
<feColorMatrix in="SourceAlpha" type="matrix" values="0 0 0 0 0 0 0 0 0 0 0 0 0 0 0 0 0 0 127 0" result="hardAlpha"/>
<feOffset dy="0.5"/>
<feGaussianBlur stdDeviation="0.5"/>
<feComposite in2="hardAlpha" operator="out"/>
<feColorMatrix type="matrix" values="0 0 0 0 0 0 0 0 0 0 0 0 0 0 0 0 0 0 0.12 0"/>
<feBlend mode="normal" in2="BackgroundImageFix" result="effect1_dropShadow_1884_16361"/>
<feBlend mode="normal" in="SourceGraphic" in2="effect1_dropShadow_1884_16361" result="shape"/>
</filter>
</defs>
</svg>
